X: 28649
T: Musical Priest, The
R: reel
M: 4/4
K: Bminor
BA|FBBA BcdB|cBAc ecBA|FBBA BcdB|ceAc ~B2:|
Bc|d2 (3edc dfed|cAeA fAec|dcBc def^g|afec ~B2:|
bBfB bBfB|cBAc ecBA|1 bBfB bBfB|cBAB cB B2:|2 Bcdc defg|afec B2||

